packages/assets/static/images/icons/subway.svg

<svg width="24" height="24" viewBox="0 0 24 24" xmlns="http://www.w3.org/2000/svg" fill="currentColor" aria-hidden="true"> <path d="M21.375 9.75V20.25C21.375 20.5484 21.2565 20.8345 21.0455 21.0455C20.8345 21.2565 20.5484 21.375 20.25 21.375C19.9516 21.375 19.6655 21.2565 19.4545 21.0455C19.2435 20.8345 19.125 20.5484 19.125 20.25V9.75C19.1235 8.45753 18.6094 7.21842 17.6955 6.3045C16.7816 5.39058 15.5425 4.87649 14.25 4.875H9.75C8.45753 4.87649 7.21842 5.39058 6.3045 6.3045C5.39058 7.21842 4.87649 8.45753 4.875 9.75V20.25C4.875 20.5484 4.75647 20.8345 4.5455 21.0455C4.33452 21.2565 4.04837 21.375 3.75 21.375C3.45163 21.375 3.16548 21.2565 2.9545 21.0455C2.74353 20.8345 2.625 20.5484 2.625 20.25V9.75C2.62699 7.86094 3.37829 6.04982 4.71406 4.71406C6.04982 3.37829 7.86094 2.62699 9.75 2.625H14.25C16.1391 2.62699 17.9502 3.37829 19.2859 4.71406C20.6217 6.04982 21.373 7.86094 21.375 9.75ZM17.625 9.75V16.5C17.6249 17.0465 17.4542 17.5794 17.1367 18.0242C16.8192 18.4691 16.3708 18.8037 15.8541 18.9816L16.0416 19.4569C16.1524 19.7339 16.1488 20.0436 16.0313 20.3178C15.9139 20.5921 15.6923 20.8085 15.4153 20.9194C15.2833 20.9726 15.1423 21 15 21C14.7752 21 14.5556 20.9327 14.3695 20.8067C14.1833 20.6807 14.0392 20.5018 13.9556 20.2931L13.4869 19.125H10.5113L10.0425 20.2931C9.95908 20.5015 9.81523 20.6802 9.62945 20.8061C9.44367 20.9321 9.22446 20.9996 9 21C8.85673 21.0003 8.71475 20.9729 8.58187 20.9194C8.3049 20.8085 8.08331 20.5921 7.96587 20.3178C7.84843 20.0436 7.84474 19.7339 7.95563 19.4569L8.14313 18.9816C7.62687 18.8033 7.17908 18.4684 6.86215 18.0236C6.54522 17.5788 6.37493 17.0462 6.375 16.5V9.75C6.375 9.05381 6.65156 8.38613 7.14384 7.89384C7.63613 7.40156 8.30381 7.125 9 7.125H15C15.6962 7.125 16.3639 7.40156 16.8562 7.89384C17.3484 8.38613 17.625 9.05381 17.625 9.75ZM8.625 9.75V13.125H15.375V9.75C15.375 9.65054 15.3355 9.55516 15.2652 9.48483C15.1948 9.41451 15.0995 9.375 15 9.375H9C8.90054 9.375 8.80516 9.41451 8.73483 9.48483C8.66451 9.55516 8.625 9.65054 8.625 9.75ZM15.375 16.5V15.375H13.125V16.875H15C15.0995 16.875 15.1948 16.8355 15.2652 16.7652C15.3355 16.6948 15.375 16.5995 15.375 16.5ZM10.875 16.875V15.375H8.625V16.5C8.625 16.5995 8.66451 16.6948 8.73483 16.7652C8.80516 16.8355 8.90054 16.875 9 16.875H10.875Z"/> </svg>

<svg viewBox="0 0 24 24" xmlns="http://www.w3.org/2000/svg" aria-hidden="true" fill="currentColor"><path d="M21.375 9.75v10.5a1.125 1.125 0 1 1-2.25 0V9.75a4.88 4.88 0 0 0-4.875-4.875h-4.5A4.88 4.88 0 0 0 4.875 9.75v10.5a1.125 1.125 0 0 1-2.25 0V9.75A7.13 7.13 0 0 1 9.75 2.625h4.5a7.13 7.13 0 0 1 7.125 7.125m-3.75 0v6.75a2.62 2.62 0 0 1-1.77 2.482l.187.475a1.125 1.125 0 0 1-1.673 1.35 1.13 1.13 0 0 1-.413-.514l-.47-1.168h-2.975l-.468 1.168a1.124 1.124 0 1 1-2.087-.836l.187-.475A2.625 2.625 0 0 1 6.375 16.5V9.75A2.625 2.625 0 0 1 9 7.125h6a2.625 2.625 0 0 1 2.625 2.625m-9 0v3.375h6.75V9.75A.375.375 0 0 0 15 9.375H9a.375.375 0 0 0-.375.375m6.75 6.75v-1.125h-2.25v1.5H15a.375.375 0 0 0 .375-.375m-4.5.375v-1.5h-2.25V16.5a.375.375 0 0 0 .375.375z"/></svg>
